packages/foundations/assets/icons/functional/images/layout/resize_24_filled.svg

<svg xmlns="http://www.w3.org/2000/svg" width="20" height="20" fill="none"><path fill="#1A1C1F" fill-rule="evenodd" d="M5.567 2.052a1.9 1.9 0 0 0-.967.545 1.86 1.86 0 0 0-.534.923C4.003 3.767 4 3.899 4 6.888v3.11l2.625.01 2.625.009.164.08c.202.1.387.287.491.495l.078.158.009 2.625.01 2.625h3.11c2.965 0 3.122-.003 3.362-.064a1.8 1.8 0 0 0 .927-.532 1.86 1.86 0 0 0 .533-.924c.064-.251.066-.388.066-5.48s-.002-5.229-.066-5.48a1.8 1.8 0 0 0-.533-.92 1.94 1.94 0 0 0-.984-.55c-.341-.071-10.519-.069-10.85.002m-2.85 9.994c-.309.098-.578.37-.671.679-.037.122-.046.572-.046 2.296 0 2.109.001 2.146.071 2.334.095.254.32.479.574.574.188.07.224.071 2.355.071s2.167-.001 2.355-.071c.254-.095.479-.32.574-.574.07-.188.071-.224.071-2.355 0-2.127-.001-2.167-.071-2.354a1.04 1.04 0 0 0-.513-.548l-.166-.081-2.2-.007c-1.7-.005-2.23.003-2.333.036"/></svg>

<svg width="20" height="20" viewBox="0 0 20 20" fill="none" xmlns="http://www.w3.org/2000/svg"><path d="M5.567 2.052 C 5.205 2.130,4.885 2.311,4.600 2.597 C 4.311 2.888,4.161 3.148,4.066 3.520 C 4.003 3.767,4.000 3.899,4.000 6.888 L 4.000 9.998 6.625 10.008 L 9.250 10.017 9.414 10.097 C 9.616 10.197,9.801 10.384,9.905 10.592 L 9.983 10.750 9.992 13.375 L 10.002 16.000 13.112 16.000 C 16.077 16.000,16.234 15.997,16.474 15.936 C 16.866 15.836,17.116 15.692,17.401 15.404 C 17.690 15.112,17.838 14.854,17.934 14.480 C 17.998 14.229,18.000 14.092,18.000 9.000 C 18.000 3.908,17.998 3.771,17.934 3.520 C 17.837 3.141,17.690 2.887,17.401 2.600 C 17.110 2.309,16.781 2.126,16.417 2.050 C 16.076 1.979,5.898 1.981,5.567 2.052 M2.717 12.046 C 2.408 12.144,2.139 12.416,2.046 12.725 C 2.009 12.847,2.000 13.297,2.000 15.021 C 2.000 17.130,2.001 17.167,2.071 17.355 C 2.166 17.609,2.391 17.834,2.645 17.929 C 2.833 17.999,2.869 18.000,5.000 18.000 C 7.131 18.000,7.167 17.999,7.355 17.929 C 7.609 17.834,7.834 17.609,7.929 17.355 C 7.999 17.167,8.000 17.131,8.000 15.000 C 8.000 12.873,7.999 12.833,7.929 12.646 C 7.845 12.420,7.652 12.214,7.416 12.098 L 7.250 12.017 5.050 12.010 C 3.350 12.005,2.820 12.013,2.717 12.046 " fill="#1A1C1F" stroke="none" fill-rule="evenodd"></path></svg>
